X: 16
M:4/4
L:1/8
K:G
fgaf g2 fe|dcAB c2 de|fgaf g2 fe|d2 cA BG G2|
fgaf g2 fe|dcAB c2 de|fgaf bgag|fdcA BG G2||

